public/assets/svg/personalItemLowest-XS.svg

<svg width="24" height="24" viewBox="0 0 24 24" fill="none" xmlns="http://www.w3.org/2000/svg">
<g id="Backpack">
<path id="Shape" fill-rule="evenodd" clip-rule="evenodd" d="M18.6654 18.6665V8.6665C18.6654 7.1165 17.5987 5.82484 16.1654 5.44984V3.6665H13.6654V5.33317H10.332V3.6665H7.83203V5.44984C6.3987 5.82484 5.33203 7.1165 5.33203 8.6665V18.6665C5.33203 19.5832 6.08203 20.3332 6.9987 20.3332H16.9987C17.9154 20.3332 18.6654 19.5832 18.6654 18.6665ZM7 13.6665V11.9998H17V15.3331H15.3333V13.6665H7Z" fill="#FF0000"/>
</g>
</svg>

<svg width="24" height="24" fill="none" xmlns="http://www.w3.org/2000/svg">
    <path fill-rule="evenodd" clip-rule="evenodd" d="M17 20.333c.917 0 1.667-.75 1.667-1.666v-10c0-1.55-1.067-2.842-2.5-3.217V3.667h-2.5v1.666h-3.333V3.667h-2.5V5.45c-1.434.375-2.5 1.667-2.5 3.217v10c0 .916.75 1.666 1.666 1.666h10zM7 13.667V12h10v3.333h-1.666v-1.666H7z" fill="#1B1B1B"/>
</svg>
